!!!OTL: Die neue Jagd. / (Der newe Jaegerston.)
!!!ARE: Europa, Mitteleuropa, Deutschland
!!!SCT: A0448
!!!TXL: @@GMH
!!!YEM: Copyright 1995, estate of Helmut Schaffrath.
**kern	**text
*M3/8	*
*k[f#c#]	*
*D:	*
!LO:TX:a:t=D dur.	!
{8A	Mit
=1	=1
4d	Luſt
8d	vor
=2	=2
8eL	we-
8dJ	.
8e	-nig
=3	=3
8f#	Ta-
8d	-gen
8d	eim
=4	=4
4f#	Ja-
8f#	-ger
=5	=5
4e	kam
8e	in
=6	=6
4d}	Sinn:}
{8A	Er
=7	=7
4d	wolt
8d	aus-
=8	=8
8eL	-rei-
8dJ	.
8e	-ten
=9	=9
8f#	ja-
8d	-gen,
8d	wo
=10	=10
4f#	er
8f#	mocht
=11	=11
4e	kom-
8e	-men
=12	=12
4d}	hin,}
{8f#	Ue-
=13	=13
4a	-ber
8f#	ein
=14	=14
4f#	grü-
8a	-ne
=15	=15
8g	Hei-
8e	-de,
8e	der
=16	=16
4g	Jä-
8g	-ger
=17	=17
4f#	wol-
8f#	-ge-
=18	=18
4e;}	-mut
{8A	in
=19	=19
4d	ſei-
8d	-nem
=20	=20
8eL	grü-
8dJ	.
8e	-nen
=21	=21
8f#	Klei-
8d	-de,
8d	mit
=22	=22
4f#	ſei-
8f#	-nem
=23	=23
4e	Ʒünd-
8e	-lein
=24	=24
4d}	gut.
==	==
!!!GTL: Jägerlieder und Jägerromanzen
!!!AGN: Romanze, Ballade, Lied, Jaegerlied
!! Bueschings Volkslieder 1807 No. 74.
!!!ONB: ESAC (Essen Associative Code) Database: ALTDEU
!!!AMT: simple triple
!!!AIN: vox
!!!EED: Helmut Schaffrath
!!!EEV: 1.0
!!!URL-scan: https://rosdok.uni-rostock.de/mcrviewer/recordIdentifier/rosdok_ppn738218359/iview2/phys_0625.iview2?x=-27.342981878423416&y=2360.5386586170644&scale=0.6340035897852&rotation=0&layout=singlePageLayout&logicalDiv=log_0016
!!!ENC: Anna Maria Matuszewska
!!!EEV: 2024/18/03
*-	*-
